X:99
T:Peter O'Byrne's Fancy
T:Peter Byrne's Fancy
R:jig
D:Moving Hearts: The Storm
D:Arty McGlynn: McGlynn's Fancy
Z:id:hn-jig-99
M:6/8
K:Dmix
AFD c2A | BAG ~A3 | AFD c2A | BGE EGD |
AFD cAA | BAG ~A3 | cde dcA |1 GEA ~D3 :|2 GEA D2c ||
|: cde dcA | AGE c2A | cde dcA | AGE EGD |
cde dcA | AGE c2d | fed cAG | AGE EGD :|
P:variations
|: AFD cAA | BAG A2D | AFD c2A | BGE EDD |
AFD c2A | BAG A2D | cde dcA | AGE EDD :|
|: cde dcA | AGE c2A | cde dcA | AGE EDD |
cde dcA | AGE c2d | fed c2A | BGE EDD :|

